X:113
T:Royal Circus. THO5.113, The
M:6/8
L:1/8
B:Thompson's Complete Collection of 200 Favourite Dances Vol.5
F:https://www.libraryofdance.org/manuals/1780c-Thompson-Compleat-5.pdf
Z:vmp. Peter Dunk 2024
Q:3/8=100
K:F
(F/G/)|AFc cBA|BGd dcB|Acd cBA|BGG G2 (F/G/)|
AFc cBA|BGd dcB|Acf gae|fff f2:|
|:(e/f/)|gec cdc|afc cdc|bag agf|efg c2c|
dBd dgb|cAc cfa|bag agf|cde f2:|
W:
W:Turn right hands round, left hands back again ./.
W:Lead down two Couples, cast up one Couple ./:
W:Set 3 & 3, top and bottom then sideways :.,
W:Hands six quite round :/:

